X: 21992
T: Kitty Tyrell
R: waltz
M: 3/4
K: Amajor
A>F|E2 F2 A2|A3 BcB|A2 a2 gf|f4 ag|fedcBA|A3 B c2|c2 (3edc (3cBA|
F4 A>F|E2 F2 A2|A3 BcB|A2 a2 gf|F4 ag|fedcBA|A2 F>E F/A/B/c/|
B2 A2 A2|A4||e2|a2 f2 a2|f4 ga|b3 agf|e4 ef/g/|a2 agfe|c2 dc (3cBA|
B2 A/B/c BA|F3 dAF|E2 F2 A2|A3 BcB|A2 a2 gf|
f4 ag|fedc ec/B/|A2 F4|b2 a2 a2|Ha6||

